X:2306
T:Polka fra Saltdal
R:Polka
Z:Ulf Bjørkelo 2012-03-22
O:Nordland
S:Svein Nymo
M:2/4
L:1/8
K:D
|:Af/f/ fg|f2 f2|Af/f/ fg|f2 f2|ef ga|ge cB|Aa ^g/a/g/a/
|fd/d/ dd|Af/f/ fg|f2f2|Af/f/ fg|f2 f2|
ef ga|ge Bc|dd/d/ dd|1d4:||2[K:G]dB c^c
|:dB GB|dB GB|ed cB|A2 AB|c/A/F/A/|c/A/F/A/|c/A/F/A/|c/A/F/A/
|ed dc|BB c^c|dB GB|dB GB|ed cB|A2 g2|ff/f/ fe|
dd ef|g/a/g/f/ g/a/g/f/|1 gB c^c:|2g4||
(:musicend:)
(:music:)
